style-guide/assets/xd-icons-pencil-small.svg

<?xml version="1.0" encoding="UTF-8"?>
<svg width="18px" height="18px" viewBox="0 0 18 18" version="1.1" xmlns="http://www.w3.org/2000/svg" xmlns:xlink="http://www.w3.org/1999/xlink">
    <!-- Generator: Sketch 51.3 (57544) - http://www.bohemiancoding.com/sketch -->
    <title>pencil</title>
    <desc>Created with Sketch.</desc>
    <defs></defs>
    <g id="pencil" stroke="none" stroke-width="1" fill="none" fill-rule="evenodd">
        <path d="M14,8.58625 L9.414,4.00025 L11,2.41425 L15.586,7.00025 L14,8.58625 Z M6.586,16.00025 L2,16.00025 L2,11.41425 L8,5.41425 L12.586,10.00025 L6.586,16.00025 Z M17.707,6.29325 L11.707,0.29325 C11.316,-0.09775 10.684,-0.09775 10.293,0.29325 L0.294,10.29225 C0.201,10.38425 0.128,10.49525 0.077,10.61825 C0.026,10.74025 0,10.87025 0,11.00025 L0,17.00025 C0,17.55325 0.447,18.00025 1,18.00025 L7,18.00025 C7.13,18.00025 7.26,17.97425 7.382,17.92325 C7.505,17.87225 7.616,17.79925 7.708,17.70625 L17.707,7.70725 C18.098,7.31625 18.098,6.68425 17.707,6.29325 Z" id="Fill-1" fill="#000000"></path>
    </g>
</svg>

<svg viewBox="0 0 18 18" xmlns="http://www.w3.org/2000/svg">
  <path d="M14 8.586L9.414 4 11 2.414 15.586 7 14 8.586zM6.586 16H2v-4.586l6-6L12.586 10l-6 6zm11.121-9.707l-6-6a.999.999 0 0 0-1.414 0l-9.999 10a.99.99 0 0 0-.217.325A.991.991 0 0 0 0 11v6a1 1 0 0 0 1 1h6c.13 0 .26-.026.382-.077a.99.99 0 0 0 .326-.217l9.999-9.999a.999.999 0 0 0 0-1.414z" fill="#000" fill-rule="evenodd"/>
</svg>
